X:24
T:The Minstrel Boy
Z:Jack Campin  *  May 2000  *  http://www.campin.me.uk/
M:4/4
L:1/8
K:G
D2|G3 A cBAG|B2d2 g2f>g|e2d2 B>cdB|A4   G2:|
z2|g2f2 e2fg|f2e2 d2z^d|e3 B B2^d2|e2fg g3D|
   G3 A cBAG|B2d2 g2f>g|e2d2 B>cdB|A4   G2||

